X:1
T:Jaunting Car -- Hornpipe
R:hornpipe
C:J. Hand
B:Cole's 1000 Fiddle Tunes
M:C|
L:1/8
K:D
((3uABc)|{e}d>cd>f e>cA>c|{e}d>BG>B A>FD>F|\
{A}G>FG>A B>cd>B|e>dc>B A>AB>c|
{e}d>cd>f e>cA>c|{e}d>BG>B A>FD>F|\
G>ec>A g>eB>c|d2f2d2:|
|:uf2|g>ec>A (^G"4"A)(EA)|(CE)(A,C) D>FA>F|\
^G>Be>d c>dB>c|A2A2 A>GF>G|
A>fd>A B>ge>c|d>AF>A d>fe>d|\
c>ba>g f>gB>c|d2f2d2:|
